symbols/web/sports_score/materialsymbolsoutlined/sports_score_wght600_40px.svg

<svg xmlns="http://www.w3.org/2000/svg" height="40" width="40"><path d="M16.042 9.25h2.916V6.375h-2.916Zm5.791 0V6.375h2.917V9.25Zm-5.791 11.583v-2.875h2.916v2.875Zm11.583-5.791v-2.875h2.917v2.875Zm0 5.791v-2.875h2.917v2.875Zm-5.792 0v-2.875h2.917v2.875ZM27.625 9.25V6.375h2.917V9.25Zm-8.667 2.917V9.25h2.875v2.917Zm-9.5 21.791V6.375h3.709V9.25h2.875v2.917h-2.875v2.875h2.875v2.916h-2.875v16Zm15.292-16v-2.916h2.875v2.916Zm-5.792 0v-2.916h2.875v2.916Zm-2.916-2.916v-2.875h2.916v2.875Zm5.791 0v-2.875h2.917v2.875Zm2.917-2.875V9.25h2.875v2.917Z"/></svg>

<svg xmlns="http://www.w3.org/2000/svg" height="40" width="40"><path d="M16.042 9.25H18.958V6.375H16.042ZM21.833 9.25V6.375H24.75V9.25ZM16.042 20.833V17.958H18.958V20.833ZM27.625 15.042V12.167H30.542V15.042ZM27.625 20.833V17.958H30.542V20.833ZM21.833 20.833V17.958H24.75V20.833ZM27.625 9.25V6.375H30.542V9.25ZM18.958 12.167V9.25H21.833V12.167ZM9.458 33.958V6.375H13.167V9.25H16.042V12.167H13.167V15.042H16.042V17.958H13.167V33.958ZM24.75 17.958V15.042H27.625V17.958ZM18.958 17.958V15.042H21.833V17.958ZM16.042 15.042V12.167H18.958V15.042ZM21.833 15.042V12.167H24.75V15.042ZM24.75 12.167V9.25H27.625V12.167Z"/></svg>
